public/images/icons8-css3.svg

<svg fill="#FFFFFF" xmlns="http://www.w3.org/2000/svg"  viewBox="0 0 50 50" width="50px" height="50px" fill-rule="evenodd"><path fill-rule="evenodd" d="M 42 6 L 39 40 L 25 44 L 11 40 L 8 6 Z M 16.800781 28 L 20.800781 28 L 20.898438 30.5 L 25 31.898438 L 29.101563 30.5 L 29.398438 26 L 20.601563 26 L 20.398438 22 L 29.601563 22 L 29.898438 18 L 16.101563 18 L 15.800781 14 L 34.101563 14 L 33.601563 22 L 32.898438 33.5 L 25 36.101563 L 17.101563 33.5 Z"/></svg>

<svg fill="#FFFFFF" xmlns="http://www.w3.org/2000/svg"  viewBox="0 0 50 50" width="50px" height="50px" fill-rule="evenodd" clip-rule="evenodd"><path d="M42,6l-3,34l-14,4l-14,-4l-3,-34l34,0Zm-25.2,22l4,0l0.1,2.5l4.1,1.4l4.1,-1.4l0.3,-4.5l-8.8,0l-0.2,-4l9.2,0l0.3,-4l-13.8,0l-0.3,-4l18.3,0l-0.5,8l-0.7,11.5l-7.9,2.6l-7.9,-2.6l-0.3,-5.5Z"/></svg>
